delete-off.svg

<svg fill="currentColor" viewBox="0 0 24 24"><path d="M2 5.27 3.28 4 5 5.72l.28.28 1 1L18 18.72l2 2L18.73 22l-1.46-1.46c-.34.29-.77.46-1.27.46H8c-1.1 0-2-.9-2-2V9.27zM19 4v2H7.82l-2-2H8.5l1-1h5l1 1zm-1 3v9.18L8.82 7z"/></svg>

<svg  viewBox="0 0 24 24" fill="currentColor"><path  d="M2 5.27L3.28 4L5 5.72L5.28 6L6.28 7L18 18.72L20 20.72L18.73 22L17.27 20.54C16.93 20.83 16.5 21 16 21H8C6.9 21 6 20.1 6 19V9.27L2 5.27M19 4V6H7.82L5.82 4H8.5L9.5 3H14.5L15.5 4H19M18 7V16.18L8.82 7H18Z"/></svg>
